X:1
T:Title
T:Un kilomètre à pied (Harmonica junior) 
T:Comptine - scoutisme chant de marche  ... 
T:Tablature pour harmonica chromatique de PéPé le YéYé
T:Tablature pour harmonica chromatique de PéPé le YéYé
C:Composer
Z:Tablature pour harmonica chromatique de PéPé le YéYé
L:1/8
M:2/4
K:C
V:1 treble nm="Harmonica" snm="Harm."
V:1
"^1" EE/E/ ED | C3"^2" C | D2 CD | E2 C2 |"^1" EE/E/ ED | C3"^3" C | DF ED | C4 |"^1" GG/G/ GF | %9
w: Un ki- lo- mètr' à|pied, ça|u- se, ça|u- se.|Un ki- lo- mètr' à|pied, ça|u- se les sou-|liers.|Un ki- lo- mètr' à|
w: deux... * * * *||||||||deux... * * * *|
w: trois... * * * *||||||||trois... * * * *|
 ^D3"^2" D | F2 ^DF | G2 ^D2 |"^1" GG/G/ GF | ^D3"^3" D | F^G =GF | ^D4 |"^1" BB/B/ BA | G3"^2" G | %18
w: pied, ça|u- se, ça|u- se.|Un ki- lo- mètr' à|pied, ça|u- se les sou-|liers.|Un ki- lo- mètr' à|pied, ça|
w: |||||||deux... * * * *||
w: |||||||trois... * * * *||
 A2 GA | B2 G2 |"^1" BB/B/ BA | G3"^3" G | Ac BA | G4 |] %24
w: u- se, ça|u- se.|Un ki- lo- mètr' à|pied, ça|u- se les sou-|liers.|
w: ||||||
w: ||||||

